favicon.svg

<svg version="1.1" viewBox="0 0 100 100" xmlns="http://www.w3.org/2000/svg"><defs><mask id="a"><path d="m0 0h100v100h-100z" fill="#fff"/><path d="m50 50 48-16m-48 16 29 40m-29-40-29 40m29-40-48-16m48 16v-50" fill="none" stroke="#000" stroke-width="4"/></mask></defs><path transform="matrix(1.1 0 0 1.1 -3.2 .98)" d="m50 50v-50l48 34-18 56h-59l-18-56 48-34z" fill="#4885c8" mask="url(#a)"/></svg>

<svg xmlns="http://www.w3.org/2000/svg" viewBox="0 0 100 100"><defs><mask id="a"><path fill="#fff" d="M0 0h100v100H0z"/><path fill="none" stroke="#000" stroke-width="4" d="m50 50 48-16M50 50l29 40M50 50 21 90m29-40L2 34m48 16V0"/></mask></defs><path fill="#4885c8" d="M50 50V0l48 34-18 56H21L3 34 51 0z" mask="url(#a)" transform="matrix(1.1 0 0 1.1 -3.2 .98)"/></svg>
